X:227
T:Charles Street Bank. RH.227
R:reel
S:Rev.R.Harrison’s MS,c1815,Cumbria
N:The bar I have inserted is one of a few possibles..CGP..
O:England
A:Temple Sowerby,Cumbria
Z:vmp.Simon Wilson. Review PJH, 2008.
M:2/4
L:1/8
Q:1/4=150
K:G
gfgf|gdBd|efgf|e2d2|\
gdBg|ecAc|BdDF|G2G2:|!
|:DAFA|DBGB|DABc|c2B2|\
gdBc|” bar misssing in MS”ecAc|Bd FA|G2G2:|

